X:1
T:Title
%%score ( 1 2 3 ) ( 4 5 )
L:1/8
Q:1/4=110
M:4/4
K:Bb
V:1 treble nm="Grand Piano, Soprano"
V:2 treble 
V:3 treble 
V:4 bass nm="Choir Pad, Bass"
V:5 bass 
V:1
 [B,D]>[CE] [DF]2 [DB]2 [DA]2 | [DB]2 [Ec]2 [EG]4 | [Ec]>[EB] [EA]2 [EG]2 [EA]2- | [EA][EG] [DF]6 | %4
w: By~George~Frederick~Root,~1881 * * * *||||
 [B,D]>[CE] [DF]2 [DB]2 [DA]2 | [DB]2 [Ec]2 [FG]2 [Ee]2 | [Fd]>[Ec] [DB]2 [EA]2 [EG]2 | %7
w: |||
 [EA]2 [DB]6 | [Dd]>[Dd] [Ed]2 [Ec]2 E2 | [Ec]>c [Dc]2 [DB]2 D2 | z4 z2 A2- | A z z2 z4 | %12
w: |||||
 [B,D]>[CE] [DF]2 [DB]2 [DA]2 | [DB]2 [Ec]2 [FG]2 [Ee]2 | [Fd]>[Ec] [EB]2 [EA]2 [EG]2 | %15
w: |||
 [EA]2 [DB]6- | [DB]2 z2 z4 |] %17
w: ||
V:2
 x8 | x8 | x8 | x8 | x8 | x8 | x8 | x8 | x8 | x8 | [DB]>A [EA]2 [EG]2 E2 | z G D2 D2 D2 | x8 | x8 | %14
 x8 | x8 | x8 |] %17
V:3
 x8 | x8 | x8 | x8 | x8 | x8 | x8 | x8 | x8 | x8 | x8 | E2 F6 | x8 | x8 | x8 | x8 | x8 |] %17
V:4
 [B,,B,]>[B,,B,] [B,,B,]2 [B,,F,]2 [B,,F,]2 | [B,,F,]2 [E,G,]2 [E,C]4 | %2
 [E,C]>[E,C] [F,C]2 [F,C]2 [F,C]2- | [F,C][F,A,] [B,,B,]6 | %4
 [B,,B,]>[B,,B,] [B,,B,]2 [B,,F,]2 [B,,F,]2 | z2 G,4 z2 | [D,B,]>[E,G,] F,2 [F,C]2 [F,C]2 | %7
 [F,C]2 [B,,B,]6 | [B,,B,]>[B,,B,] [F,A,]2 [F,A,]2 [F,A,]2 | [B,,B,]2 [B,,B,]2 [B,,B,]2 [B,,B,]2 | %10
 [B,,B,]2 [F,C]2 [F,C]2 [F,C]2 | [F,A,]2 [B,,B,]2 [B,,B,]2 [B,,B,]2 | %12
 [B,,B,]>[B,,B,] [B,,B,]2 [B,,F,]2 [B,,F,]2 | z2 G,4 z2 | [D,B,]>[E,G,] F,2 [F,C]2 [F,C]2 | %15
 [F,C]2 [B,,B,]6- | [B,,B,]2 z2 z4 |] %17
V:5
 x8 | x8 | x8 | x8 | x8 | [B,,F,]2 E,2 D,2 [C,G,]2 | x8 | x8 | x8 | x8 | x8 | x8 | x8 | %13
 [B,,F,]2 E,2 D,2 [C,G,]2 | x8 | x8 | x8 |] %17

